packages/katcn/src/icons/svg/pencil.svg

<svg width="24" height="25" viewBox="0 0 24 25" fill="none" xmlns="http://www.w3.org/2000/svg">
<path d="M1.9654 23.968C1.66365 23.968 1.46249 23.8685 1.26132 23.6694C0.959574 23.3707 0.959574 23.0721 1.06016 22.6739L2.56889 17.6965C2.77006 16.9001 3.27297 16.0042 3.97705 15.4069L16.1475 3.16259C16.9522 2.36621 17.958 1.96802 19.0644 1.96802C20.0702 1.96802 21.0761 2.36621 21.8807 3.06304C23.3895 4.55625 23.3895 7.14449 21.7801 8.73725L11.5207 18.9906C11.1184 19.3888 10.5149 19.3888 10.1126 18.9906C9.71024 18.5925 9.71024 17.9952 10.1126 17.597L20.372 7.44313C21.1766 6.64675 21.2772 5.25309 20.4726 4.45671C20.0702 4.05852 19.5673 3.85942 19.0644 3.85942C18.4609 3.85942 17.958 4.05852 17.4551 4.55625L5.48578 16.502L9.00617 19.9861C9.20733 20.1852 9.30791 20.4839 9.30791 20.7825C9.30791 21.0811 9.10675 21.3798 8.90558 21.4793L8.70442 21.5789C8.20151 21.8775 7.6986 22.1762 7.0951 22.3753L2.16656 23.8685C2.06598 23.968 2.06598 23.968 1.9654 23.968ZM4.47996 18.0947C4.47996 18.1943 4.47996 18.1943 4.37938 18.2938L3.37355 21.5789L6.59219 20.5834C6.69277 20.5834 6.69277 20.5834 6.79335 20.4839L4.47996 18.0947Z" fill="black"/>
</svg>

<svg xmlns="http://www.w3.org/2000/svg" fill="none" viewBox="0 0 24 25"><path fill="#000" d="M1.965 23.968c-.301 0-.503-.1-.704-.299-.301-.298-.301-.597-.2-.995l1.508-4.977c.201-.797.704-1.693 1.408-2.29l12.17-12.244a4.05 4.05 0 0 1 2.917-1.195c1.006 0 2.012.398 2.817 1.095 1.509 1.493 1.509 4.081-.1 5.674L11.52 18.991a.98.98 0 0 1-1.408 0 .955.955 0 0 1 0-1.394l10.26-10.154c.805-.796.905-2.19.1-2.986a2 2 0 0 0-1.408-.598c-.603 0-1.106.2-1.609.697L5.485 16.502l3.521 3.484c.201.2.302.498.302.796 0 .3-.201.598-.402.697l-.202.1c-.502.299-1.005.597-1.609.796L2.167 23.87c-.101.099-.101.099-.202.099m2.515-5.873c0 .1 0 .1-.1.199L3.374 21.58l3.218-.996c.1 0 .1 0 .201-.1z"/></svg>
